icons/assets/icons/symbol.broadcast.svg

<?xml version="1.0" encoding="UTF-8"?>
<svg width="768px" height="768px" viewBox="0 0 768 768" version="1.1" xmlns="http://www.w3.org/2000/svg" xmlns:xlink="http://www.w3.org/1999/xlink">
    <title>broadcast</title>
    <g id="Page-1" stroke="none" stroke-width="1" fill="none" fill-rule="evenodd">
        <g id="broadcast" fill="#000000" fill-rule="nonzero">
            <path d="M480,704 C475.032306,704 470.132981,702.842139 465.69,700.62 L216.45,576 L64,576 C46.326888,576 32,561.673112 32,544 L32,224 C32,206.326888 46.326888,192 64,192 L216.45,192 L465.69,67.38 C475.609294,62.4207148 487.389128,62.9507989 496.822905,68.7809584 C506.256681,74.6111178 512,84.9100542 512,96 L512,672 C512,689.673112 497.673112,704 480,704 Z M96,512 L224,512 C228.967694,512.000648 233.867019,513.157861 238.31,515.38 L448,620.22 L448,147.78 L238.31,252.62 C233.867019,254.842139 228.967694,255.999352 224,256 L96,256 L96,512 Z M736,384 C736,366.326888 721.673112,352 704,352 L608,352 C590.326888,352 576,366.326888 576,384 C576,401.673112 590.326888,416 608,416 L704,416 C721.673112,416 736,401.673112 736,384 Z M698.75,656.56 C708.44735,641.786236 704.332969,621.948561 689.56,612.25 L593.56,549.25 C584.002583,542.851511 571.746531,542.074284 561.457398,547.214189 C551.168264,552.354095 544.42897,562.620389 543.804985,574.104967 C543.180999,585.589545 548.768319,596.525574 558.44,602.75 L654.44,665.75 C669.213764,675.44735 689.051439,671.332969 698.75,656.56 L698.75,656.56 Z M593.56,217.75 L689.56,154.75 C704.151918,144.981019 708.145452,125.277982 698.508953,110.598235 C688.872454,95.9184887 669.206372,91.7467727 654.44,101.25 L558.44,164.25 C548.768319,170.474426 543.180999,181.410455 543.804985,192.895033 C544.42897,204.379611 551.168264,214.645905 561.457398,219.785811 C571.746531,224.925716 584.002583,224.148489 593.56,217.75 Z" id="形状"></path>
            <rect id="矩形" opacity="0" x="0" y="0" width="768" height="768"></rect>
        </g>
    </g>
</svg>

<svg xmlns="http://www.w3.org/2000/svg" width="768" height="768" viewBox="0 0 768 768"><defs><style>.a{opacity:0;}</style></defs><title>broadcast</title><path d="M480,704a32,32,0,0,1-14.31-3.38L216.45,576H64a32,32,0,0,1-32-32V224a32,32,0,0,1,32-32H216.45L465.69,67.38A32,32,0,0,1,512,96V672a32,32,0,0,1-32,32ZM96,512H224a32,32,0,0,1,14.31,3.38L448,620.22V147.78L238.31,252.62A32,32,0,0,1,224,256H96ZM736,384a32,32,0,0,0-32-32H608a32,32,0,0,0,0,64h96A32,32,0,0,0,736,384ZM698.75,656.56a32,32,0,0,0-9.19-44.31l-96-63a32,32,0,1,0-35.12,53.5l96,63a32,32,0,0,0,44.31-9.19ZM593.56,217.75l96-63a32,32,0,0,0-35.12-53.5l-96,63a32,32,0,1,0,35.12,53.5Z"/><rect class="a" width="768" height="768"/></svg>
